X:333
T:B333-  Now, Now the Fight's Done
Q:1/4=120
L:1/4
M:3/4
K:C
G|c3/2d/c|c3/2c/d|(e/f/)f(e/f/)|g2g|\
(f/e/) (d/c/) B/A/|d3/2e/d|(B/c/) (d/B/) (A/G/)|G2G|\
c3/2d/c|A3/2B/A|e3/2f/e|f2F|\
AAA|cGc|e3/2d/c|g2":s:"g|\
(a/g/) (f/e/) (d/e/)|f3/2e/d|cAd|B3/2A/G|\
g2a/A/|B3/2f/e|c3/2d/B|c2|]

